X: 50
T: Angels Unawares
M:3/4
R:waltz
L:1/8
Z:Alf Warnock - alf0@rogers.com
K:G
GG|"G"G2 B2 DC|"C"C2 "G"B,2 "C"B,C|"G"DG BA "D"(3AGF|"G"G4 FG|
"D"A2 d2 cB|Ad cB AG|"G"B2 D2 "C"ED|"D"D4 FG|
"D"A2 d2 cB|AB cB AG|"G"B2 D2 D2| "D"A2 dc AF|
"G"G2 B2 DC|"C"C2 "G"B,2 "C"B,C|"G"D2 G2 "D"BA|"G"G4|]
